X: 20943
T: The Drunken Wife of Galloway
%R: jig
B: James Oswald "The Caledonian Pocket Companion" v.2 p.94 #3
Z: 2019 John Chambers <jc:trillian.mit.edu>
N: Changed the high f' in bar 11 to d', to match bar 12.
M: 6/4
L: 1/4
K: G
|:"_Lively"\
G>AG d>Bd | A>BA c2e | G>AG dBd | ece d2(c/B/) |\
cec BdB | A>BA {B}c2e | g>fe dBd | G>AG TB2d :|
|:\
g>ag bgb | e>fg Tf2d | g>ag d'bg | d'bg d'bg |\
e>fg dBG | aAB {B}c2(e/f/) | g>fe dBd | G>AG TB2d :|


